X: 56
T: Fang yang
%%abc-version 2.0
%%abcx-abcm2ps-target-version 5.9.1 (29 Sep 2008)
%%abc-creator hum2abc beta
%%abcx-conversion-date 2013/10/02 07:52:29
%%abc-edited-by Helmut Schaffrath
%%humdrum-veritas 225438391
%%humdrum-veritas-data 3816523049
%%continueall 1
%%barnumbers 0
L: 1/16
M: 2/4
K: G
B2 B2 d2 d e [I:setbarnb 1]| 
d2 B A2< G2 A | 
A2 B2 d2 B A | 
G6A2 | 
B2 B2 d2 d B | 
A2 G2 B2 B A | 
E F E DB,4 | 
A2 G A B2 F E | 
D8 |]  



